X: 10392
T: Donald Blue
R: reel
M: 4/4
K: Dmajor
|:dB(AF) (AF)(AB)|dB(AF) (vE2uD2)|dB(AF) (AF) uA2|vBu((BB)A) vB2ue2:|
|:AB(de) fafd|fafd (ed) uB2|AB(de) fafd|vBu((BB)A) vB2ud2:|

